src/svg/16/clear_16.svg

<?xml version="1.0" encoding="UTF-8"?>
<svg width="16px" height="16px" viewBox="0 0 16 16" version="1.1" xmlns="http://www.w3.org/2000/svg" xmlns:xlink="http://www.w3.org/1999/xlink">
    <!-- Generator: Sketch 50.2 (55047) - http://www.bohemiancoding.com/sketch -->
    <title>clear_16</title>
    <desc>Created with Sketch.</desc>
    <defs></defs>
    <g id="Page-2" stroke="none" stroke-width="1" fill="none" fill-rule="evenodd">
        <g id="clear_16" fill="currentColor">
            <path d="M6.72862294,8.0015033 L4.26290894,10.469991 C3.91143707,10.8214629 3.91143707,11.3913114 4.26290894,11.7427832 C4.6143808,12.0942551 5.18422928,12.0942551 5.53570114,11.7427832 L8.00070006,9.2750114 L10.465699,11.7427832 C10.8171708,12.0942551 11.3870193,12.0942551 11.7384912,11.7427832 C12.0899631,11.3913114 12.0899631,10.8214629 11.7384912,10.469991 L9.27277719,8.0015033 L11.7384912,5.53301559 C12.0899631,5.18154373 12.0899631,4.61169525 11.7384912,4.26022339 C11.3870193,3.90875153 10.8171708,3.90875153 10.465699,4.26022339 L8.00070006,6.72799521 L5.53570114,4.26022339 C5.18422928,3.90875153 4.6143808,3.90875153 4.26290894,4.26022339 C3.91143707,4.61169525 3.91143707,5.18154373 4.26290894,5.53301559 L6.72862294,8.0015033 Z M8,16 C3.581722,16 0,12.418278 0,8 C0,3.581722 3.581722,0 8,0 C12.418278,0 16,3.581722 16,8 C16,12.418278 12.418278,16 8,16 Z" id="Mask"></path>
        </g>
    </g>
</svg>

<svg xmlns="http://www.w3.org/2000/svg" width="16" height="16" fill="none" viewBox="0 0 16 16"><path fill="currentColor" d="M8 0c4.4183 0 8 3.5817 8 8s-3.5817 8-8 8-8-3.5817-8-8 3.5817-8 8-8Zm2.4657 4.2602L8 6.727 5.5357 4.2602A.9.9 0 1 0 4.2629 5.533L6.728 8.001 4.263 10.47a.9.9 0 0 0 1.2727 1.2728L8 9.275l2.4657 2.4678a.9.9 0 0 0 1.2728 0 .9.9 0 0 0 0-1.2728L9.272 8.001l2.4665-2.468a.9.9 0 0 0-1.2728-1.2728Z"/></svg>
